X:1
T:Virgo Maria
T:Virgo Maria
T:Gaspar van Weerbeke
T:Source : Motetti A---Venetia---O.Petrucci---1502. Editor : André Vierendeels (11/05/14).
C:Gaspar van Weerbeke
%%score [ 1 [ 2 3 ] 4 ]
L:1/8
Q:1/4=120
M:4/2
K:C
V:1 treble nm="Cantus" snm="C"
V:2 treble-8 nm="Tenor 1" snm="T 1"
V:3 treble-8 nm="Tenor 2" snm="T 2"
V:4 bass nm="Bass" snm="B"
V:1
 E16 | E4 E4 F6 ED | E12 G4- | G4 A4 B4 c2 d2- | d2 cB c8 B4 | c8 z4 c4 | c4 c4 B4 A2 B2- | %7
w: Vir-|go Ma- ri- * *|a, non|_ est ti- bi si-|* * * * mi-|lis na-|ta in mun- * *|
"^#" BA A4 G2 A8 | z16 | z4 E4 G4 G4 | E8 z4 G4 | A4 G2 E4 DC B,3 C | D2 E4 D2 E4 z4 | z16 | z16 | %15
w: * * * * do,||in- ter o-|mnes mu-|li- e- * * * * *|* * * res,|||
 z8 z4 A4 | G2 G2 c4 B4 A2 c2- | cB A4 G2 A8 | A4 A4 A8 | A4 A4 G8 | F8 E4 D2 E2- | E2 D4 C2 D8 | %22
w: fra-|gans si- cut li- * *|* * * li- um,|in- ter- ce-|de pro no-|bis ad Do- *|* * mi- num|
 F8 E4 G4- | G2 F2 E8 D4 | E16- | E16- | E16 |] %27
w: Je- sum Chri-||stum.|_||
V:2
 B16 | c4 B3 c d8 | G8 g6 e2 | edcB A4 z2 F2 E2 D2- | D2 E4 FE G8 | E3 F G2 A3 B c3 d e2- | %6
w: Vir-|go Ma- * ri-|a, non est|ti- * * * bi si- * *|* * mi- * lis|na- * * * * * * *|
 ef g4 f2 g4 f2 g2- | g2 e6 c3 d ef e2- | e2 dc B2 d4 c4 B2 | c8 c3 d e3 d | c2 BA G2 c3 def gfed | %11
w: |* ta in _ _ _ mun-||do, in- * * *|ter _ _ _ o- * * * * * * *|
 c4 e4 z2 f2 e4 | c4 A4 z8 | z16 | z16 | z4 A4 G2 G2 c4 | B4 A2 e4 d2 c2 e2- | ed c2 B4 A8 | %18
w: * mnes mu- li-|e- res|||fla- grans sic- ut|li- * * * * *|* * * li- um,|
 c4 c4 d4 A2 d2- | de f4 ed c2 d4 c2 | d8 c4 A2 c2- | c2 A4 A2 F4 A4 | z4 d4 G6 c2- | %23
w: in- ter- ce- de pro|_ _ no- * * * * *|bis ad Do- *|* * mi- num _|Je- sum Chri-|
 c2 BA G2 c2 B2 A4 GA | B8 c4 G4 | A4 B4 c6 BA | B16 |] %27
w: |||stum.|
V:3
 E16 | G4 G4 A6 B2 | c16 | c4 c4 d4 e2 f2- | f2 e2 c4 d8 | c8 c8 | A4 A4 G2 B2 c2 d2- | %7
w: Vir-|go Ma- ri- *|a,|non est ti- * *|* bi si- mi-|lis na-|ta in mun- * * *|
 dA c2 B4 A8 | z16 | z8 z4 E4 | G4 G4 E8 | z4 G4 A4 G2 E2- | E2 G2 F4 E8 | z4 A4 G2 G2 c4 | %14
w: * * * * do,||in-|ter o- mnes|mu- li- e- *|* * * res|flo- rens ut ro-|
 B4 A2 B3 AGF G4 | A8 z8 | z16 | z8 E8 | E4 E4 F8 | D4 D4 G8 | A8 A4 F2 G2- | G2 F2 E4 D8 | %22
w: |sa,||in-|ter- ce- de|pro no- *|bis ad Do- *|* * mi- num|
 A8 c4 G4 | E6 G2 F8 | E16- | E16- | E16 |] %27
w: Je- sum Chri-||stum.-|_||
V:4
 E,16 | C,4 E,4 D,8 | C,16 | E,4 F,4 D,4 C,2 _B,,2- | B,,2 C,2 A,,4 G,,8 | C,8 z8 | %6
w: Vir-|go Ma- ri-|a,|non est ti- * *|* bi si- mi-|lis|
 z8 G,4 A,2 G,2- | G,F, A,2 E,4 A,,8 | A,4 G,2 F,2 G,2 E,2 D,4 | C,16 | C,16 | %11
w: na- ta in|_ _ _ mun- do,|in- * * * * *|ter|o-|
 F,4 E,D,C,B,, A,,4 E,2 A,,2 | C,4 D,4 z4 A,,4 |"^#" G,,2 G,,2 C,4 B,,4 A,,2 E,2- | %14
w: mnes mu- * * * * li- *|e- res flo-|rens ut ro- * * *|
 E,2 D,2 C,2 D,3 C,B,,A,, B,,4 | A,,8 z8 | z4 A,4 G,4 A,4 | E,2 A,2 E,4 A,,8 | A,,4 A,,4 D,8 | %19
w: |sa,|sic- ut li-|* * li- um,|in- ter ce-|
 D,4 F,4 E,8 | D,8 A,,4 D,2 C,2- | C,2 D,2 A,,4 A,8 | D,8 C,8- | C,8 D,8 | G,8 C,6 B,,2 | %25
w: de pro no-|bis ad Do- *|* * mi- num|Je- sum|_ Chri-||
 A,,4 G,,4 A,,8 | E,16 |] %27
w: |stum.|

